tenants/businesswise/icons/check_fill.svg

<svg fill="none" height="24" viewBox="0 0 24 24" width="24" xmlns="http://www.w3.org/2000/svg"><path clip-rule="evenodd" d="m12 22c5.5228 0 10-4.4772 10-10 0-5.52285-4.4772-10-10-10-5.52285 0-10 4.47715-10 10 0 5.5228 4.47715 10 10 10zm-2.0217-7.7151 6.3922-6.64069c.1138-.1183.2985-.1183.4123 0l.6874.71404c.1138.11833.1138.31014 0 .42844l-7.2857 7.56891c-.1139.1183-.29854.1183-.41242 0l-3.24222-3.3682c-.11388-.1184-.11388-.3102 0-.4285l.68732-.714c.1139-.1183.29853-.1183.41241 0z" fill="#000" fill-rule="evenodd"/></svg>

<svg width="24" height="24" viewBox="0 0 24 24" fill="none" xmlns="http://www.w3.org/2000/svg">
<path fill-rule="evenodd" clip-rule="evenodd" d="M12 22C17.5228 22 22 17.5228 22 12C22 6.47715 17.5228 2 12 2C6.47715 2 2 6.47715 2 12C2 17.5228 6.47715 22 12 22ZM9.9783 14.2849L16.3705 7.64421C16.4843 7.52591 16.669 7.52591 16.7828 7.64421L17.4702 8.35825C17.584 8.47658 17.584 8.66839 17.4702 8.78669L10.1845 16.3556C10.0706 16.4739 9.88596 16.4739 9.77208 16.3556L6.52986 12.9874C6.41598 12.869 6.41598 12.6772 6.52986 12.5589L7.21718 11.8449C7.33108 11.7266 7.51571 11.7266 7.62959 11.8449L9.9783 14.2849Z" fill="black"/>
</svg>
